X:1
T:James Gibb editions
T:Crudelis Herodes - Ravanello
T:#
%%score { 1 | 2 } 3
L:1/8
Q:1/4=120
M:4/4
K:Bb
V:1 treble nm="Soprano I" snm="S"
V:2 treble 
V:3 treble nm="Alto" snm="A"
V:1
"^mosso""^Crudelis Herodes, op.66/5""^Oreste Ravanello\n (1871-1938)"!f! d2 | d4 d2 d2 | e4 d4 | %3
w: Cru-|de- lis He-|ro- des|
 c8 |"^," d8 | d4 d2 d2 |[M:4/4] g4 f2 e2 | (d6 c2) |"^," d6 d2 | d4 d4 | e4 d4 | c6 c2 |"^," d8 | %13
w: De-|um|re- gem ve-|ni- re quid|ti\- *|mes? non|e- ri-|pit mor-|ta- li-|a,|
 d4 c2 B2 | A4 B4 | A6 A2 | !fermata!G8 || d2 | d4 d4 | e4"^," d4 | c4 c4 |"^," d8 | d4 d2 d2 | %23
w: qui re- gna|dat coe-|le- sti-|a.|La-|va- cra|pu- ri|gur- gi-|tis|coe- le- stis|
 (g4 f2) e2 | d6 c2 |"^," d6 d2 | d4 d4 | e4 d4 | c6 c2 |"^," d8 | d4 c2 B2 | A4 B4 | A6 A2 | %33
w: A\- * gnus|at- ti-|git: pec-|ca- ta;|quae non|de- tu-|lit,|nos a- blu-|en- do|su- stu-|
 !fermata!G8 || d4 d4 | e2 e2"^," d4 | c4 c4 |"^," d8 | d2 d2 d2 d2 | (g4 f2) e2 | d6 c2 | %41
w: lit.|Je- su,|ti- bi sit|glo- ri-|a,|qui ap- pa- ru-|i\- * sti|gen- ti-|
"^," d6 d2 | d4 d2 d2 | e4 d4 | c6 c2 |"^," d8 | d4 c2 B2 | A4 B4 | A6 A2 | !fermata!G8 || e8 | %51
w: bus, cum|Pa- tre et|al- mo|Spi- ri-|tu,|in sem- pi-|ter- na|sae- cu-|la.|A-|
 d8 |] %52
w: men.|
V:2
!f! B2 | B4 B2 B2 | (B2 c2)"^," B2 (B2- | B2 AG A4) |"^," B8 | B4 B2 A2 |[M:4/4] (B3 c) d2 c2- | %7
w: Cru-|de- lis He-|ro\- * des De\-||um|re- gem ve-|ni\- * re quid|
 c2 (B2 A2 G2) |"^," ^F6 A2 | B4 B4 | (G2 A2) B4 | (B2 AG) A4 |"^," B8 | B4 A2 G2 | ^F4 G4- | %15
w: * ti\- * *|mes? non|e- ri-|pit * mor-|ta\- * * li-|a,|qui re- gna|dat coe\-|
 G2 (^F=E F3) F | !fermata!G8 || B2 | B4 B4 | (B2 c2)"^," B2 (B2- | B2 AG) A4 |"^," B8 | B4 B2 A2 | %23
w: * le\- * * sti-|a.|La-|va- cra|pu\- * ri gur\-|* * * gi-|tis|coe- le- stis|
 (B3 c d2) c2- | c2 (B2 A2) G2 |"^," ^F6 A2 | B4 B4 | (G2 A2) B4 | (B2 AG) A4 |"^," B8 | B4 A2 G2 | %31
w: A\- * * gnus|* at\- * ti-|git: pec-|ca- ta;|quae * non|de\- * * tu-|lit,|nos a- blu-|
 ^F4 G4- | G2 (^F=E F3) F | !fermata!G8 || B4 B4 | B2 c2"^," B2 (B2- | B2 AG) A4 |"^," B8 | %38
w: en- do|* su\- * * stu-|lit.|Je- su,|ti- bi sit glo\-|* * * ri-|a,|
 B2 B2 B2 A2 | (B3 c d2) c2- | c2 (B2 A2) G2 |"^," ^F6 A2 | B4 B2 B2 | (G2 A2) B4 | (B2 AG) A4 | %45
w: qui ap- pa- ru-|i\- * * sti|* gen\- * ti-|bus, cum|Pa- tre et|al\- * mo|Spi\- * * ri-|
"^," B8 | B4 A2 G2 | ^F4 G4- | G2 (^F=E F3) F | !fermata!G8 || (G4 c4) | =B8 |] %52
w: tu,|in sem- pi-|ter- na|* sae\- * * cu-|la.|A\- *|men.|
V:3
!f! G2 | G4 G2 G2 | (G2 A2) B4 | F8 |"^," B,8 | (B3 A) G2 F2 |[M:4/4] E4 D2 (EF) | (G4 F2 E2) | %8
w: Cru-|de- lis He-|ro\- * des|De-|um|re\- * gem ve-|ni- re quid *|ti\- * *|
"^," D6 ^F2 | G4 G4 | C4 (D2 E2) | F6 F2 |"^," B,8 | B,4 C2 C2 | D4 G,4 | D6 D2 | !fermata!G8 || %17
w: mes? non|e- ri-|pit mor\- *|ta- li-|a,|qui re- gna|dat coe-|le- sti-|a.|
 G2 | G4 G4 | (G2 A2) B4 | F4 F4 |"^," B,8 | (B3 A) G2 F2 | (E4 D2) (EF) | G4 (F2 E2) | %25
w: La-|va- cra|pu\- * ri|gur- gi-|tis|coe\- * le- stis|A\- * gnus *|at- ti\- *|
"^," D6 ^F2 | G4 G4 | C4 (D2 E2) | F6 F2 |"^," B,8 | B,4 C2 C2 | D4 G,4 | D6 D2 | !fermata!G8 || %34
w: git: pec-|ca- ta;|quae non *|de- tu-|lit,|nos a- blu-|en- do~|su- stu-|lit.|
 G4 G4 | G2 A2 B4 | F4 F4 |"^," B,8 | B3 A G2 F2 | (E4 D2) (EF) | G4 (F2 E2) |"^," D6 ^F2 | %42
w: Je- su,|ti- bi sit|glo- ri-|a,|qui ap- pa- ru-|i\- * sti *|gen- ti\- *|bus, cum|
 G4 G2 G2 | C4 (D2 E2) | F6 F2 |"^," B,8 | B,4 C2 C2 | D4 G,4 | D6 D2 | !fermata!G8 || C8 | G8 |] %52
w: Pa- tre et|al- mo *|Spi- ri-|tu,|in sem- pi-|ter- na|sae- cu-|la.|A-|men.|

